app/icons/pdf-paper.svg

<?xml version="1.0" encoding="UTF-8"?>
<svg width="24px" height="24px" viewBox="0 0 24 24" version="1.1" xmlns="http://www.w3.org/2000/svg" xmlns:xlink="http://www.w3.org/1999/xlink">
    <!-- Generator: Sketch 58 (84663) - https://sketch.com -->
    <title>Icon/pdf-paper</title>
    <desc>Created with Sketch.</desc>
    <g id="Icon/pdf-paper" stroke="none" stroke-width="1" fill="none" fill-rule="evenodd">
        <path d="M14,3.5 L6.5,3.5 C5.94771525,3.5 5.5,3.94771525 5.5,4.5 L5.5,19.5 C5.5,20.0522847 5.94771525,20.5 6.5,20.5 L17.5,20.5 C18.0522847,20.5 18.5,20.0522847 18.5,19.5 L18.5,19 L20,19 L18.5,19 L18.5,8 L15,8 C14.4477153,8 14,7.55228475 14,7 L14,3.5 Z M19.994,6.995 L20,7.001 L20,20 C20,21.1045695 19.1045695,22 18,22 L6,22 C4.8954305,22 4,21.1045695 4,20 L4,4 C4,2.8954305 4.8954305,2 6,2 L15.02,2 L15.024,2.005 C15.3794423,2.03459921 15.7127061,2.18988594 15.964,2.443 L19.564,6.068 C19.813,6.318 19.964,6.647 19.994,6.995 Z M7.268,18 C6.95237798,17.9923699 6.65272408,17.8596301 6.435,17.631 C5.965,17.091 5.96,16.609 6.037,16.299 C6.104,16.029 6.27,15.782 6.504,15.603 C6.849,15.337 7.845,14.626 9.315,14.021 C10.087,12.62 10.61,11.481 10.964,10.574 C10.349,9.422 10.148,8.47 10.083,8.004 C10.0267998,7.63268025 10.0576093,7.25338186 10.173,6.896 C10.461,6.021 11.052,5.98 11.3,6.005 C11.35,6.01 12.328,6.145 12.49,7.52 C12.497,7.575 12.604,8.447 11.846,10.513 C12.31,11.303 12.991,12.182 13.987,13.047 C14.963,13.037 16.001,13.143 17.092,13.419 C17.347,13.484 17.569,13.615 17.732,13.799 C18.0047832,14.0900743 18.0775787,14.5158296 17.917,14.881 C17.918,14.881 17.852,15.081 17.707,15.281 C17.394512,15.7072835 16.8175835,15.841532 16.349,15.597 C15.4084996,15.1107289 14.5213545,14.5275659 13.702,13.857 C12.3925224,13.9104458 11.1009855,14.1807832 9.88,14.657 C9.33890835,15.618156 8.76864353,16.5625946 8.17,17.489 C8.0472147,17.6862022 7.86520033,17.8395143 7.65,17.927 L7.649,17.927 C7.517,17.978 7.389,18 7.269,18 L7.268,18 Z M8.631,15.218 C8.05642637,15.5098071 7.50835601,15.8510964 6.993,16.238 C6.9071779,16.3004145 6.84483703,16.3898754 6.816,16.492 C6.771,16.675 6.844,16.878 7.032,17.095 C7.036,17.098 7.188,17.245 7.356,17.18 C7.407,17.16 7.456,17.115 7.496,17.055 C7.915,16.404 8.291,15.793 8.631,15.218 L8.631,15.218 Z M15.071,13.888 C15.561,14.231 16.11,14.566 16.721,14.887 C16.836,14.947 16.981,14.914 17.057,14.809 C17.127,14.712 17.161,14.611 17.162,14.609 C17.214,14.477 17.204,14.412 17.132,14.333 C17.0677554,14.2652632 16.9849744,14.2179597 16.894,14.197 C16.2953719,14.0449759 15.6853546,13.9419686 15.07,13.889 L15.071,13.888 Z M11.481,11.434 C11.211,12.071 10.872,12.794 10.445,13.614 C11.179,13.386 11.995,13.204 12.878,13.112 C12.3578513,12.6003673 11.8898812,12.0382672 11.481,11.434 L11.481,11.434 Z M11.201,6.801 C11.103,6.801 11.011,6.918 10.935,7.148 C10.858787,7.38861184 10.8392783,7.6435945 10.878,7.893 C10.923,8.213 11.039,8.788 11.34,9.504 C11.746,8.194 11.694,7.63 11.693,7.618 C11.606,6.882 11.217,6.803 11.213,6.802 L11.201,6.802 L11.201,6.801 Z" id="Shape" fill="#000000"></path>
    </g>
</svg>

<svg xmlns="http://www.w3.org/2000/svg" width="24" height="24" viewBox="0 0 24 24">
    <path fill="currentColor" fill-rule="evenodd" d="M14 3.5H6.5a1 1 0 0 0-1 1v15a1 1 0 0 0 1 1h11a1 1 0 0 0 1-1V19H20h-1.5V8H15a1 1 0 0 1-1-1V3.5zm5.994 3.495l.006.006V20a2 2 0 0 1-2 2H6a2 2 0 0 1-2-2V4a2 2 0 0 1 2-2h9.02l.004.005a1.5 1.5 0 0 1 .94.438l3.6 3.625c.249.25.4.579.43.927zM7.268 18a1.19 1.19 0 0 1-.833-.369c-.47-.54-.475-1.022-.398-1.332.067-.27.233-.517.467-.696.345-.266 1.341-.977 2.811-1.582.772-1.401 1.295-2.54 1.649-3.447-.615-1.152-.816-2.104-.881-2.57a2.425 2.425 0 0 1 .09-1.108c.288-.875.879-.916 1.127-.891.05.005 1.028.14 1.19 1.515.007.055.114.927-.644 2.993.464.79 1.145 1.669 2.141 2.534.976-.01 2.014.096 3.105.372.255.065.477.196.64.38a.996.996 0 0 1 .185 1.082c.001 0-.065.2-.21.4a1.07 1.07 0 0 1-1.358.316 15.207 15.207 0 0 1-2.647-1.74 11.848 11.848 0 0 0-3.822.8 54.276 54.276 0 0 1-1.71 2.832 1.101 1.101 0 0 1-.52.438h-.001c-.132.051-.26.073-.38.073zm1.363-2.782a11.1 11.1 0 0 0-1.638 1.02.473.473 0 0 0-.177.254c-.045.183.028.386.216.603.004.003.156.15.324.085.051-.02.1-.065.14-.125.419-.651.795-1.262 1.135-1.837zm6.44-1.33c.49.343 1.039.678 1.65.999.115.06.26.027.336-.078.07-.097.104-.198.105-.2.052-.132.042-.197-.03-.276a.475.475 0 0 0-.238-.136 11.373 11.373 0 0 0-1.824-.308zm-3.59-2.454c-.27.637-.609 1.36-1.036 2.18.734-.228 1.55-.41 2.433-.502a11.003 11.003 0 0 1-1.397-1.678zm-.28-4.633c-.098 0-.19.117-.266.347a1.636 1.636 0 0 0-.057.745c.045.32.161.895.462 1.611.406-1.31.354-1.874.353-1.886-.087-.736-.476-.815-.48-.816h-.012z"/>
</svg>
